X:373
M:6/8
L:1/8
K:G
d>cB c>BA|G2G G2:|
|:b/a/|g2d edB|d2d dba|g2d edB|A2A Aba|g2d edB|def gfe|dec BcA|

